svgs/sharp-light/plus-minus.svg

<svg xmlns="http://www.w3.org/2000/svg" viewBox="0 0 384 512"><!--! Font Awesome Pro 6.6.0 by @fontawesome - https://fontawesome.com License - https://fontawesome.com/license (Commercial License) Copyright 2024 Fonticons, Inc. --><path d="M176 352l0 16 32 0 0-16 0-144 144 0 16 0 0-32-16 0-144 0 0-144 0-16-32 0 0 16 0 144L32 176l-16 0 0 32 16 0 144 0 0 144zM16 448l0 32 16 0 320 0 16 0 0-32-16 0L32 448l-16 0z"/></svg>

<svg xmlns="http://www.w3.org/2000/svg" viewBox="0 0 384 512"><!--! Font Awesome Pro 6.4.2 by @fontawesome - https://fontawesome.com License - https://fontawesome.com/license (Commercial License) Copyright 2023 Fonticons, Inc. --><path d="M176 352v16h32V352 208H352h16V176H352 208V32 16H176V32 176H32 16v32H32 176V352zM16 448v32H32 352h16V448H352 32 16z"/></svg>
